brandFactory_export/1.Light/Documento_Archivo AVI_1Light.svg

<?xml version="1.0" encoding="UTF-8"?>
<svg width="24px" height="24px" viewBox="0 0 24 24" version="1.1" xmlns="http://www.w3.org/2000/svg" xmlns:xlink="http://www.w3.org/1999/xlink">
    <title>1.Light/Documento_Archivo AVI_1Light</title>
    <g id="Symbols" stroke="none" stroke-width="1" fill="none" fill-rule="evenodd">
        <g id="1.Light/Documento_Archivo-AVI_1Light" fill="#5CB615" fill-rule="nonzero">
            <path d="M17.3092437,-1.86517468e-13 C17.5243697,-1.86517468e-13 17.7294118,0.0840336134 17.887395,0.231932773 L24.3781513,6.51764706 C24.4857143,6.62184874 24.5462185,6.75966387 24.5831933,6.90420168 C24.6067227,6.96470588 24.6235294,7.02857143 24.6235294,7.09915966 L24.6235294,22.1747899 C24.6235294,22.9579832 23.9478992,23.6201681 23.1478992,23.6201681 L8.22352941,23.6201681 C7.43697479,23.6201681 6.74789916,22.9445378 6.74789916,22.1747899 L6.79159664,18.5310924 L3.72268908,18.5310924 C2.22352941,18.5310924 1.00336134,17.3109244 1.00336134,15.8084034 L1.00336134,10.7932773 C1.00336134,9.2907563 2.22352941,8.07058824 3.72268908,8.07058824 L6.74789916,8.07058824 L6.74789916,1.44537815 C6.74789916,0.68907563 7.45042017,-1.86517468e-13 8.22352941,-1.86517468e-13 L17.3092437,-1.86517468e-13 Z M16.4823529,0.994957983 L8.22016807,0.994957983 C7.99831933,0.994957983 7.73277311,1.24033613 7.73277311,1.4487395 L7.73277311,8.07394958 L15.7798319,8.07394958 C17.2789916,8.07394958 18.4991597,9.29411765 18.4991597,10.7966387 L18.4991597,15.8117647 C18.4991597,17.3142857 17.2789916,18.5344538 15.7798319,18.5344538 L7.77983193,18.5344538 L7.73613445,22.1848739 C7.73613445,22.4033613 7.9815126,22.6319328 8.22352941,22.6319328 L23.1478992,22.6319328 C23.3966387,22.6319328 23.6319328,22.410084 23.6319328,22.1781513 L23.6319328,7.92268908 L20.5529412,7.92268908 C19.3764706,7.92268908 18.3613445,7.54285714 17.6218487,6.82352941 C16.8756303,6.10084034 16.4823529,5.1092437 16.4823529,3.96302521 L16.4823529,0.994957983 Z M15.7831933,9.06554622 L3.71932773,9.06554622 C2.76806723,9.06554622 1.99159664,9.84201681 1.99159664,10.7932773 L1.99159664,15.8084034 C1.99159664,16.7630252 2.76470588,17.5394958 3.71932773,17.5394958 L15.7831933,17.5394958 C16.7344538,17.5394958 17.5109244,16.7630252 17.5109244,15.8084034 L17.5109244,10.7932773 C17.5109244,9.83865546 16.7378151,9.06554622 15.7831933,9.06554622 Z M7.16134454,11.2403361 L8.75798319,15.6605042 L7.6789916,15.6605042 L7.3092437,14.5478992 L5.87394958,14.5478992 L5.53109244,15.6605042 L4.56638655,15.6605042 L6.0487395,11.2403361 L7.16134454,11.2403361 Z M9.67563025,11.2403361 L10.7109244,14.4470588 L11.6756303,11.2403361 L12.6571429,11.2403361 L11.1882353,15.6605042 L10.1361345,15.6605042 L8.59663866,11.2403361 L9.67563025,11.2403361 Z M14.2369748,11.2403361 L14.2369748,15.6605042 L13.2285714,15.6605042 L13.2285714,11.2403361 L14.2369748,11.2403361 Z M6.57983193,12.3462185 L6.56638655,12.3462185 L6.10588235,13.8184874 L7.06386555,13.8184874 L6.57983193,12.3462185 Z M17.4705882,1.21008403 L17.4705882,3.95966387 C17.4705882,4.83361345 17.7596639,5.57647059 18.3109244,6.10756303 C18.8655462,6.64201681 19.6420168,6.92773109 20.5529412,6.92773109 L23.3731092,6.92773109 L17.4705882,1.21008403 Z" id="Documento_Archivo-AVI_1Light"></path>
        </g>
    </g>
</svg>

<svg width="24" height="24" viewBox="0 0 24 24" xmlns="http://www.w3.org/2000/svg"><path d="M17.31 0c.214 0 .42.084.577.232l6.491 6.286a.8.8 0 01.205.386c.024.06.04.125.04.195v15.076c0 .783-.675 1.445-1.475 1.445H8.224c-.787 0-1.476-.675-1.476-1.445l.044-3.644h-3.07c-1.498 0-2.719-1.22-2.719-2.723v-5.015a2.723 2.723 0 012.72-2.722h3.025V1.445C6.748.69 7.45 0 8.224 0h9.085zm-.828.995H8.22c-.222 0-.487.245-.487.454v6.625h8.047c1.499 0 2.72 1.22 2.72 2.723v5.015a2.723 2.723 0 01-2.72 2.722h-8l-.044 3.65c0 .22.246.448.488.448h14.924c.249 0 .484-.222.484-.454V7.923h-3.08c-1.176 0-2.19-.38-2.93-1.1-.746-.722-1.14-1.714-1.14-2.86V.995zm-.699 8.07H3.72c-.95 0-1.727.777-1.727 1.728v5.015a1.73 1.73 0 001.727 1.731h12.064c.951 0 1.728-.776 1.728-1.73v-5.016c0-.954-.773-1.727-1.728-1.727zM7.161 11.24l1.597 4.42H7.679l-.37-1.112H5.874L5.53 15.66h-.965l1.483-4.42H7.16zm2.515 0l1.035 3.207.965-3.207h.981l-1.469 4.42h-1.052l-1.54-4.42h1.08zm4.561 0v4.42h-1.008v-4.42h1.008zM6.58 12.346h-.014l-.46 1.472h.958l-.484-1.472zM17.47 1.21v2.75c0 .874.29 1.616.84 2.148.556.534 1.332.82 2.243.82h2.82L17.471 1.21z" fill="#5CB615" fill-rule="nonzero"/></svg>
